X:1
T: Miss Clementina Stewart's Reel
C:
R:Reel
Q: 232
K:A
M:4/4
L:1/8
|:E|A2 ce ae cA|ce cA GB GE|A2 ce ae cA|ce BG A2 AE|
A2 ce ae cA|ce cA GB GE|A2 ce ae cA|ce BG A2 Ae|
ae cA ce ag|ac' fa ba ge|ae ce ae e'd'|c'b ag a2 ag|
ae ce da fd|ce cA GB GE|ae ce da fd|ec BG A2 A:|

